X: 21472
T: Kevin Moyna
R: reel
M: 4/4
K: Dmajor
|:D2FD CEGE|DFF2 Adfe|dfaf gbed|(3cdege cAGE|
D2FD CEGE|DFF2 Adfe|dfaf gbed|(3Bcdec d4:|
|:F2BF AFBF|Agfe dBAG|F3B AFF2|A,DFD E2AG|
F2BF AFBF|Agfe dBB2|gabg aff2|eAce d4:|
|:a2gb afdg|fgaf gbag|fdAF BGED|A,DFD E2AG|
FABF Add2|(3Bcdfd Bee2|gabg eaa2|gece d4:|

